!!!COM: Clara Schumann
!!!CNT: Deutsch
!!!TXO: Deutsch
!!!OTL: "Mein Stern"
!!!LYR: Serre, Friederike
!!!OPS: Op. 
!!!ONM: No. 
!!!ENC: Leigh VanHandel
!!!YOR: Clara Schumann: Seven Songs. Kristin Norderval, Editor
!!!YOR: Hildegard Publishing Company
!!!ODT: 1846/
!!NB: Vocal melody and text encoded.
**kern	**silbe
*staff1	*
=1-	=1
*clefG2	*
*k[b-e-a-]	*
*M3/8	*
*MM[Andante]	*
8r	.
4r	.
=2	=2
4r	.
{8b-	{O
=3	=3
4.b-	du
=4	=4
4.dd	mein
=5	=5
4.ee-}	Stern!}
=6	=6
4r	.
{8b-	{Schau
=7	=7
[4.b-	dich
=8	=8
4b-]	|
8a-	so
=9	=9
4.g}	gern!}
=10	=10
4r	.
{8g	{Wenn
=11	=11
[4.f	still
=12	=12
4f]	|
8g	im
=13	=13
4.g	Mee-
=14	=14
4a-	-re
8a-	die
=15	=15
[4.dd-	Son-
=16	=16
4dd-	|
8cc	-ne
=17	=17
8cc	sin-
8bn}	-ket}
8r	.
=18	=18
4r	.
{8g	{dein
=19	=19
4.cc	gold'-
=20	=20
4.dd	-nes
=21	=21
4.dd	Au-
=22	=22
4ee-	-ge
8a-	-so
=23	=23
[4.ff	tro2-
=24	=24
4ff]	|
8ee-	-send
=25	=25
4ee-	win-
[8dd	-ket
=26	=26
8dd]	|
8cc	|
8cc	in
=27	=27
4cc	mei-
[8b-	|
=28	=28
4b-]	|
8a-	-ner
=29	=29
4.g	Nacht!
==	==
*-	*-
